!! 00000] TT[00
!! NN
!!!OTL: Daqi haozi ba huasheng shai
!!!ARE: Asia, China,ÿJiangsu, Taixing, Nord)
!! Ethnic Group: Han
!! III, 454
!!!SCT: C0323
!!!YEM: Copyright 1995, estate of Helmut Schaffrath.
**kern
*ICvox
*Ivox
*M2/4
*k[f#]
*G:
{2a
=1
8b
8dd
16a
16g
16e
16g
=2
4.a}
{16g
16e
=3
8a
16dd
16b
16a
16b
16a
16g
=4
2e}
=5
{8a
16dd
16b
[4a
=6
4.a]
32g
32a
32g
32e
=7
2d}
=8
{8e
16e
16g
8a
8b
=9
8a
16g
16e
8a
16g
16e}
=10
{16a
16a
16a
16b
8g
16a
16a
=11
8dd
8a
8dd
8a}
=12
{4dd
16b
16a
8g
=13
2a}
=14
{8b
16b
16dd
8a
16g
16e
=15
16dd
16e
4g
8e}
=16
{8b
16b
16dd
8a
16g
16e
=17
16dd
16e
4g
8e}
=18
{8b
16b
16dd
8a
16g
16e
=19
16b
16e
4g
8e}
=20
{16b
16b
16b
16dd
8a
16g
16e
=21
16dd
16e
4.g}
=22
{8g
8g
8a
16a
16b
=23
8dd
16ee
16dd
8.b
16a}
=24
{8g
16g
16a
16b
16a
16dd
16b
=25
8.a
16b
16a
16g
8e
=26
2d}
=27
{8a
16dd
16b
8a
16g
16e
=28
2g}
==
!!!AGN: Haozi, Shai huasheng haozi. Shai huasheng shi chang
!! Enthaelt viele Elemente der Xiaodiao. Die Erdnueesse werden
!!    in die Sonne gelegt zum trocknen und saeubern.
!!    Vereinzelt Verzierungen, Fermaten.
!!!ONB: ESAC (Essen Associative Code) Database: CHINA
!!!AMT: simple duple
!!!AIN: vox
!!!EED: Helmut Schaffrath
!!!EEV: 1.0
*-
!!!ONB: Tied note syntax fixed by Craig Sapp, 2004/05/03/
